mimes/128/model.svg

<?xml version="1.0" encoding="UTF-8" standalone="no"?>
<svg
   xmlns:dc="http://purl.org/dc/elements/1.1/"
   xmlns:cc="http://creativecommons.org/ns#"
   xmlns:rdf="http://www.w3.org/1999/02/22-rdf-syntax-ns#"
   xmlns:svg="http://www.w3.org/2000/svg"
   xmlns="http://www.w3.org/2000/svg"
   xmlns:xlink="http://www.w3.org/1999/xlink"
   version="1.1"
   width="128"
   height="128"
   id="svg3172">
  <defs
     id="defs3174">
    <linearGradient
       id="linearGradient3977">
      <stop
         id="stop3979"
         style="stop-color:#ffffff;stop-opacity:1"
         offset="0" />
      <stop
         id="stop3981"
         style="stop-color:#ffffff;stop-opacity:0.23529412"
         offset="0.00648027" />
      <stop
         id="stop3983"
         style="stop-color:#ffffff;stop-opacity:0.15686275"
         offset="0.99423188" />
      <stop
         id="stop3985"
         style="stop-color:#ffffff;stop-opacity:0.39215687"
         offset="1" />
    </linearGradient>
    <linearGradient
       id="linearGradient3600">
      <stop
         id="stop3602"
         style="stop-color:#f4f4f4;stop-opacity:1"
         offset="0" />
      <stop
         id="stop3604"
         style="stop-color:#dbdbdb;stop-opacity:1"
         offset="1" />
    </linearGradient>
    <linearGradient
       id="linearGradient3702-501-757-486">
      <stop
         id="stop3100"
         style="stop-color:#181818;stop-opacity:0"
         offset="0" />
      <stop
         id="stop3102"
         style="stop-color:#181818;stop-opacity:1"
         offset="0.5" />
      <stop
         id="stop3104"
         style="stop-color:#181818;stop-opacity:0"
         offset="1" />
    </linearGradient>
    <linearGradient
       id="linearGradient3688-464-309-255">
      <stop
         id="stop3094"
         style="stop-color:#181818;stop-opacity:1"
         offset="0" />
      <stop
         id="stop3096"
         style="stop-color:#181818;stop-opacity:0"
         offset="1" />
    </linearGradient>
    <linearGradient
       id="linearGradient3688-166-749-737">
      <stop
         id="stop3088"
         style="stop-color:#181818;stop-opacity:1"
         offset="0" />
      <stop
         id="stop3090"
         style="stop-color:#181818;stop-opacity:0"
         offset="1" />
    </linearGradient>
    <linearGradient
       x1="23.99999"
       y1="5.5641499"
       x2="23.99999"
       y2="42.194839"
       id="linearGradient3016"
       xlink:href="#linearGradient3977"
       gradientUnits="userSpaceOnUse"
       gradientTransform="matrix(2.4594595,0,0,3.1081081,4.9729852,-14.594559)" />
    <linearGradient
       x1="25.132275"
       y1="0.98520643"
       x2="25.132275"
       y2="47.013336"
       id="linearGradient3019"
       xlink:href="#linearGradient3600"
       gradientUnits="userSpaceOnUse"
       gradientTransform="matrix(2.6571409,0,0,2.5422194,0.228619,-4.91283)" />
    <linearGradient
       x1="25.058096"
       y1="47.027729"
       x2="25.058096"
       y2="39.999443"
       id="linearGradient3024"
       xlink:href="#linearGradient3702-501-757-486"
       gradientUnits="userSpaceOnUse"
       gradientTransform="matrix(3.1428572,0,0,1.2857143,-11.428573,61.571428)" />
    <radialGradient
       cx="4.9929786"
       cy="43.5"
       r="2.5"
       fx="4.9929786"
       fy="43.5"
       id="radialGradient3027"
       xlink:href="#linearGradient3688-464-309-255"
       gradientUnits="userSpaceOnUse"
       gradientTransform="matrix(2.4045407,0,0,1.7999999,-32.014243,-195.8)" />
    <radialGradient
       cx="4.9929786"
       cy="43.5"
       r="2.5"
       fx="4.9929786"
       fy="43.5"
       id="radialGradient3030"
       xlink:href="#linearGradient3688-166-749-737"
       gradientUnits="userSpaceOnUse"
       gradientTransform="matrix(2.4045407,0,0,1.7999999,95.985757,39.200001)" />
  </defs>
  <metadata
     id="metadata3177">
    <rdf:RDF>
      <cc:Work
         rdf:about="">
        <dc:format>image/svg+xml</dc:format>
        <dc:type
           rdf:resource="http://purl.org/dc/dcmitype/StillImage" />
        <dc:title />
      </cc:Work>
    </rdf:RDF>
  </metadata>
  <rect
     width="6"
     height="8.999999"
     x="108"
     y="113"
     id="rect2801"
     style="opacity:0.4;fill:url(#radialGradient3030);fill-opacity:1;stroke:none" />
  <rect
     width="6"
     height="8.999999"
     x="-20"
     y="-122"
     transform="scale(-1,-1)"
     id="rect3696"
     style="opacity:0.4;fill:url(#radialGradient3027);fill-opacity:1;stroke:none" />
  <rect
     width="88"
     height="9"
     x="20"
     y="113"
     id="rect3700"
     style="opacity:0.4;fill:url(#linearGradient3024);fill-opacity:1;stroke:none" />
  <path
     d="m 17.499929,1.500412 c 21.311061,0 93.000031,0.007 93.000031,0.007 l 1.1e-4,116.992628 c 0,0 -62.0001,0 -93.00014,0 0,-39.000029 0,-78.000054 0,-117.000079 z"
     id="path4160"
     style="fill:url(#linearGradient3019);fill-opacity:1;stroke:none;display:inline" />
  <path
     d="m 109.5,117.5 -91,0 0,-115.000003 91,0 z"
     id="rect6741-1"
     style="fill:none;stroke:url(#linearGradient3016);stroke-width:1;stroke-linecap:round;stroke-linejoin:round;stroke-miterlimit:4;stroke-opacity:1;stroke-dasharray:none;stroke-dashoffset:0" />
  <path
     d="m 17.499929,1.5004119 c 21.311061,0 93.000031,0.007 93.000031,0.007 l 1.1e-4,116.9926281 c 0,0 -62.0001,0 -93.00014,0 0,-39.000029 0,-78.000054 0,-117.0000791 z"
     id="path4160-4"
     style="opacity:0.3;fill:none;stroke:#000000;stroke-width:0.99992186;stroke-linecap:butt;stroke-linejoin:round;stroke-miterlimit:4;stroke-opacity:1;stroke-dasharray:none;stroke-dashoffset:0;display:inline" />
  <path
     id="path3054"
     style="fill:none;stroke:#ee5216;stroke-width:2.5;stroke-linecap:butt;stroke-linejoin:miter;stroke-miterlimit:4;stroke-opacity:1;stroke-dasharray:none;display:inline"
     d="M 64.000002,57.766203 90.111244,46.567876 M 64.000002,91.51 87.701,76.39559 90.111272,46.568483 64.000002,38.08232 m 0,53.42768 0,-33.743797 -26.010844,-11.19772 M 64.000002,91.51 40.299002,76.39559 37.888728,46.568483 64.000002,38.08232" />
</svg>

<svg xmlns="http://www.w3.org/2000/svg" xmlns:xlink="http://www.w3.org/1999/xlink" viewBox="0 0 128 128"><defs><linearGradient id="a"><stop offset="0" stop-color="#fff"/><stop offset=".006" stop-color="#fff" stop-opacity=".235"/><stop offset=".994" stop-color="#fff" stop-opacity=".157"/><stop offset="1" stop-color="#fff" stop-opacity=".392"/></linearGradient><linearGradient id="b"><stop offset="0" stop-color="#f4f4f4"/><stop offset="1" stop-color="#dbdbdb"/></linearGradient><linearGradient id="c"><stop offset="0" stop-color="#181818" stop-opacity="0"/><stop offset=".5" stop-color="#181818"/><stop offset="1" stop-color="#181818" stop-opacity="0"/></linearGradient><linearGradient id="d"><stop offset="0" stop-color="#181818"/><stop offset="1" stop-color="#181818" stop-opacity="0"/></linearGradient><linearGradient id="e"><stop offset="0" stop-color="#181818"/><stop offset="1" stop-color="#181818" stop-opacity="0"/></linearGradient><linearGradient x1="24" y1="5.564" x2="24" y2="42.195" id="j" xlink:href="#a" gradientUnits="userSpaceOnUse" gradientTransform="matrix(2.45946 0 0 3.1081 4.973 -14.595)"/><linearGradient x1="25.132" y1=".985" x2="25.132" y2="47.013" id="i" xlink:href="#b" gradientUnits="userSpaceOnUse" gradientTransform="matrix(2.65714 0 0 2.54222 .23 -4.913)"/><linearGradient x1="25.058" y1="47.028" x2="25.058" y2="39.999" id="h" xlink:href="#c" gradientUnits="userSpaceOnUse" gradientTransform="matrix(3.14286 0 0 1.2857 -11.43 61.57)"/><radialGradient cx="4.993" cy="43.5" r="2.5" fx="4.993" fy="43.5" id="g" xlink:href="#d" gradientUnits="userSpaceOnUse" gradientTransform="matrix(2.40454 0 0 1.8 -32.014 -195.8)"/><radialGradient cx="4.993" cy="43.5" r="2.5" fx="4.993" fy="43.5" id="f" xlink:href="#e" gradientUnits="userSpaceOnUse" gradientTransform="matrix(2.40454 0 0 1.8 95.986 39.2)"/></defs><path opacity=".4" fill="url(#f)" d="M108 113h6v9h-6z"/><path transform="scale(-1)" opacity=".4" fill="url(#g)" d="M-20-122h6v9h-6z"/><path opacity=".4" fill="url(#h)" d="M20 113h88v9H20z"/><path d="M17.5 1.5c21.31 0 93 .007 93 .007V118.5h-93V1.5z" fill="url(#i)"/><path d="M109.5 117.5h-91V2.5h91z" fill="none" stroke="url(#j)" stroke-linecap="round" stroke-linejoin="round"/><path d="M17.5 1.5c21.31 0 93 .007 93 .007V118.5h-93V1.5z" opacity=".3" fill="none" stroke="#000" stroke-linejoin="round"/><path d="M64 57.766l26.11-11.198M64 91.51l23.7-15.114 2.41-29.828L64 38.082m0 53.428V57.766L37.99 46.568M64 91.51L40.3 76.396l-2.41-29.828L64 38.082" fill="none" stroke="#ee5216" stroke-width="2.5"/></svg>
